X: 3
T: The Pipe On The Hob
R: jig
M: 6/8
L: 1/8
K: Dmix
K: Dmix
d^cd A2G|~F3 DB,D|~E3 c2E|EDC DFA|
dcB ~c3|BAG AGF|~E3 c2E|1EDC D2A:|2EDC D2a||
|:f2d d^cd|f2d d^cd|e2c =cec|e^ce a2g|
[1 f2d d^cd|f2d d^cd| ~e3 eag|ed^c d2e:|
[2 ~f3 ~g3|agf gfe|~e3 eag|ed^c d3||


Tune 1049	Setting 28689

